remote.svg

<svg fill="currentColor" viewBox="0 0 24 24"><path d="M12 0C8.96 0 6.21 1.23 4.22 3.22l1.41 1.41A8.95 8.95 0 0 1 12 2c2.5 0 4.74 1 6.36 2.64l1.41-1.41C17.79 1.23 15.04 0 12 0M7.05 6.05l1.41 1.41a5.02 5.02 0 0 1 7.08 0l1.41-1.41A6.98 6.98 0 0 0 12 4c-1.93 0-3.68.78-4.95 2.05M12 15a2 2 0 0 1-2-2 2 2 0 0 1 2-2 2 2 0 0 1 2 2 2 2 0 0 1-2 2m3-6H9a1 1 0 0 0-1 1v12a1 1 0 0 0 1 1h6a1 1 0 0 0 1-1V10a1 1 0 0 0-1-1"/></svg>

<svg  viewBox="0 0 24 24" fill="currentColor"><path  d="M12,0C8.96,0 6.21,1.23 4.22,3.22L5.63,4.63C7.26,3 9.5,2 12,2C14.5,2 16.74,3 18.36,4.64L19.77,3.23C17.79,1.23 15.04,0 12,0M7.05,6.05L8.46,7.46C9.37,6.56 10.62,6 12,6C13.38,6 14.63,6.56 15.54,7.46L16.95,6.05C15.68,4.78 13.93,4 12,4C10.07,4 8.32,4.78 7.05,6.05M12,15A2,2 0 0,1 10,13A2,2 0 0,1 12,11A2,2 0 0,1 14,13A2,2 0 0,1 12,15M15,9H9A1,1 0 0,0 8,10V22A1,1 0 0,0 9,23H15A1,1 0 0,0 16,22V10A1,1 0 0,0 15,9Z"/></svg>
